icon/stop-icon-black2.svg

<?xml version="1.0" encoding="UTF-8" standalone="no"?><!DOCTYPE svg PUBLIC "-//W3C//DTD SVG 1.1//EN" "http://www.w3.org/Graphics/SVG/1.1/DTD/svg11.dtd"><svg width="100%" height="100%" viewBox="0 0 228 255" version="1.1" xmlns="http://www.w3.org/2000/svg" xmlns:xlink="http://www.w3.org/1999/xlink" xml:space="preserve" xmlns:serif="http://www.serif.com/" style="fill-rule:evenodd;clip-rule:evenodd;stroke-linejoin:round;stroke-miterlimit:2;"><path d="M227.026,27.311l-0,199.715c-0,15.083 -12.228,27.311 -27.312,27.311l-172.403,-0c-15.083,-0 -27.311,-12.228 -27.311,-27.311l0,-199.715c-0,-15.083 12.228,-27.311 27.311,-27.311l172.403,-0c15.084,0 27.312,12.228 27.312,27.311Z"/></svg>

<?xml version="1.0" encoding="UTF-8" standalone="no"?><!DOCTYPE svg PUBLIC "-//W3C//DTD SVG 1.1//EN" "http://www.w3.org/Graphics/SVG/1.1/DTD/svg11.dtd"><svg width="100%" height="100%" viewBox="0 0 228 255" version="1.1" xmlns="http://www.w3.org/2000/svg" xmlns:xlink="http://www.w3.org/1999/xlink" xml:space="preserve" xmlns:serif="http://www.serif.com/" style="fill-rule:evenodd;clip-rule:evenodd;stroke-linejoin:round;stroke-miterlimit:2;"><path d="M227.026,27.311L227.026,227.026C227.026,242.109 214.798,254.337 199.714,254.337L27.311,254.337C12.228,254.337 0,242.109 0,227.026L0,27.311C-0,12.228 12.228,0 27.311,0L199.714,0C214.798,0 227.026,12.228 227.026,27.311Z"/></svg>
